icons/op-mail1-24.svg

<svg width="24" height="24" viewBox="0 0 24 24" fill="none" xmlns="http://www.w3.org/2000/svg">
<path d="M12 13.3125L19.1562 7.03125C19.0938 7 19.0625 7 19 7H4.9375L12 13.3125ZM20 8C20 7.875 19.9688 7.75 19.9375 7.65625L14.9062 12.0938L19.875 16.4688C19.9688 16.3125 20 16.1562 20 16V8ZM4.09375 7.59375C4.03125 7.71875 4 7.84375 4 8V16C4 16.125 4.03125 16.2812 4.09375 16.4062L9.125 12.0938L4.09375 7.59375ZM14.1562 12.7812L12 14.6562L9.875 12.75L4.96875 16.9688L5 17H18.9688L14.1562 12.7812Z" fill="black"/>
</svg>

<svg xmlns="http://www.w3.org/2000/svg" width="24" height="24" viewBox="0 0 24 24"><path d="m12 13.312 7.156-6.281C19.094 7 19.062 7 19 7H4.938L12 13.312ZM20 8c0-.125-.031-.25-.062-.344l-5.032 4.438 4.969 4.375A.883.883 0 0 0 20 16V8ZM4.094 7.594A.859.859 0 0 0 4 8v8c0 .125.031.281.094.406l5.031-4.312-5.031-4.5Zm10.062 5.187L12 14.656 9.875 12.75l-4.906 4.219L5 17h13.969l-4.813-4.219Z"/></svg>
